!!!ONB: MCCC : ILB0041_02 : Extracted Monophonic Melody
!!!COM: Beethoven, Ludwig van
!!!OPR: Cello Sonata
!!!OMV: 2
!!!SCT: Op.5 No.1
!!!ODT: 1796///
**kern
*staff1
*clefG2
*k[b-]
*F:
*M6/8
8f#
8f#
8d
=2
4g
8f
8e
8e
8c
=3
8f
8c
8e
8f
8c
8e
=4
8f
8c
8a
4cc
8cc
=5
8ccc
8ccc
8aa
4ddd
8ccc
=6
8bb-
8bb-
8gg
4ccc
8bb-
=7
8aa[
8aa]
8gg
4ff
8dd
=8
4cc
8b-
8a
8cc
8ff
=9
8aa[
8aa]
8gg
4ff
8dd
=10
8cc
8a
8g
4.f
=11
16c
16e
16g
16b-
24cc
24ee
24gg
16bb-
16gg
16bb-
16gg
16bb-
16gg
=12
16aa
16ff
16ccc
16aa
16ff
16cc
16a
16cc
16ff
16cc
16a
16f
=13
16e
16g
16b-
16cc
16ee
16gg
16bb-
16gg
16bb-
16gg
16bb-
16gg
=14
16aa
16ff
16ccc
16aa
16ff
16cc
16a
16cc
16ff
16cc
16a
16f
=15
8r
32bb-
32aa
16gg
8aa
8ccc
8aa
8ff
=16
4.bb-
4.r
=17
8r
32b-
32a
16g
8a
8cc
8f
8ff
=18
16ff
16b-
16dd
16b-
16ff
16dd
16bb-
16ff
16ddd
16bb-
16fff
16eee-
=19
16ddd
16ccc#
16ddd
16ccc
16bb-
16aa
16gg
16ff#
16gg
16ff
16ee
16dd
=20
4cc
8gg
8gg
8ee
8aa
=21
8aa
8ff
8bb
8bb
8gg
8ccc
=22
8ccc
8eee
8gg
8gg
8ee
8aa
=23
8aa
8ff
8bb
8bb
8gg
8ccc
=24
4ccc
8ee
8b
8cc
8ee
=25
8a-
8a
8cc
8e
8a
8f#
=26
4.g
4.r
=27
4.r
4r
8bb-[
=28
8bb-]
8aa
8aa
8ee
8ff
8aa
=29
8cc#
8dd
8ff
8a
8dd
8b
=30
4.cc
4r
8aa[
=31
8aa]
8ff#
8gg
8a
8dd
8b
=32
8cc
8ee
8cc#
8dd
8ff
8ee-
=33
8ee
8gg
8ee
8ff
8aa
8ff#
=34
8gg
8ee
8cc
8ff
8dd
8b
=35
16cc
16ccc
16cc
16ccc
16cc
16ccc
16cc
16ccc
16cc
16ccc
16cc
16ccc
=36
16cc
16ccc
16cc
16ccc
16cc
16ccc
16cc
16ccc
16cc
16ccc
16cc
16ccc
=37
16e
16g
16cc
16ee
8gg
16B
16d
16f
16b
8dd
=38
16cc
16c
16B
16c
16d
16c
16e
16c
16B
16c
16f
16c
=39
16g
16c
16B
16c
16d
16c
16e
16c
16B
16c
16f
16c
=40
4g
16d
16dd
16e
16ee
16e
16ee
16f
16ff
=41
16g
16gg
16g
16gg
16dd
16ddd
16ee
16eee
16ee
16eee
16ff
16fff
=42
16gg
16ccc
16eee
16ccc
16gg
16ee
16gg
16ee
16ccc
16gg
16ee
16cc
=43
16ee
16cc
16gg
16ee
16cc
16g
16cc
16g
16ee
16cc
16g
16e
=44
16g
16e
16cc
16g
16e
16c
16f
16d
16g
16f
16d
16B
=45
16ccc
16gg
16eee
16ccc
16gg
16ee
16gg
16ee
16ccc
16gg
16ee
16cc
=46
16ee
16cc
16gg
16ee
16cc
16g
16cc
16g
16ee
16cc
16g
16e
=47
16g
16e
16cc
16g
16e
16c
16f
16d
16g
16f
16d
16B
=48
16ccc
16gg
16eee
16ccc
16gg
16ee
16gg
16ee
16ccc
16gg
16ee
16cc
=49
16ee
16cc
16gg
16ee
16cc
16g
16cc
16g
16ee
16cc
16g
16e
=50
16g
16e
16cc
16g
16e
16c
16e
16c
16g
16e
16c
16G
=51
16e
16c
16g
16e
16c
16G
16e
16c
16g
16e
16c
16G
=52
16c
16B
16d
16c
16e
16e-
16f
16e
16g
16f#
16a
16g
=53
16cc
16b
16dd
16cc
16ee
16ee-
16ff
16ee
16gg
16ff#
16aa
16gg
=54
16ccc
16bb
16ddd
16ccc
16bb
16ccc
16bb
16ccc
16bb
16ccc
16bb
16ccc
=55
16ddd
16ccc
16bb
16ccc
16bb
16ccc
16bb
16ccc
16bb
16ccc
16bb
16ccc
=56
16eee-
16ccc#
16bb#
16ccc#
16bb#
16ccc#
16bb#
16ccc#
16bb#
16ccc#
16bb#
16ccc#
=57
16eee-
16ddd
16ccc#
16ddd
16ccc#
16ddd
16ccc#
16ddd
16ccc#
16ddd
16ccc#
16ddd
=58
16fff
16eee-
16ddd
16eee-
16ddd
16eee-
16ddd
16eee-
16ddd
16eee-
16ddd
16eee-
=59
16ddd
16eee-
16ddd
16eee-
16ddd
16eee-
16ddd
16eee-
16ddd
16eee-
16ddd
16eee-
=60
8eee-
8eee-
8ccc
4fff
8eee-
=61
8ccc#
8ccc#
8bb-
4eee-
8ccc#
=62
16ccc
16cc
16ccc
16cc
16aa-
16cc
4ccc#
8ccc
=63
8bb-
8bb-
8gg
4ccc
8bb-
=64
16bb-
16cc
16aa-
16cc
16aa-
16cc
16aa-
16cc
16gg
16cc
16gg
16cc
=65
16gg
16cc
16ff
16cc
16ff
16cc
16aa-
16b
16gg
16b
16ff
16b
=66
4.ee
8f#
8f#
8d
=67
4g
8f
8e
8e
8c
=68
8f
8c
8e
8f
8c
8e
=69
8f
8c
8a
4cc
8cc
=70
8ccc
8ccc
8aa
4ddd
8ccc
=71
8bb-
8bb-
8gg
4ccc
8bb-
=72
8aa[
8aa]
8gg
4ff
8dd
=73
4cc
8b-
8a
8cc
8ff
=74
8aa[
8aa]
8gg
4ff
8dd
=75
8cc
8a
8g
4.f
=76
8r
8cc
8ff
8ff
8f
8ff
=77
8a-
8ff
8ee
8ff[
8ff]
8cc#
=78
4ff
8ee-
4cc#
8b-
=79
4a-
8f#
4e#
8f#
=80
4e#
8f#
4f
8b-
=81
16b-
16cc
16b-
16a
16b-
16cc
16cc#
16ee-
16ff
16ee-
16cc#
16b-
=82
16b-
16ff
16f
16ff
16f#
16ff#
16f
16ff
16f
16ff
16f#
16ff#
=83
16f
16ff
16f
16ff
16f#
16ff#
16f
16ff
16f
16ff
16b-
16bb-
=84
16bb-
16ccc
16bb-
16aa
16bb-
16ccc
16ccc#
16eee-
16fff
16eee-
16ccc#
16ccc
=85
8bb-
8b-
8b-
32b-
16.cc
16cc#
16cc
8b-
=86
8cc
8cc
8cc
32cc
16.cc#
16ee-
16cc#
8b#
=87
32cc#
16.ee-
16ff
16ee-
8cc#
32b-
16.cc
16cc#
16cc
8b-
=88
32a
32b-
16cc
8a
8f
4.f
=89
2.r
=90
16F
16c
16f
16c
16e
16B-
16c
16f
16F
16f
16F
16f
=91
8r
16c
8f
16c
4.r
=92
8r
16r
8.f
4r
8f
=93
8b-
8b-
8b-
32b-
16.cc
16cc#
16cc
8b-
=94
8cc
8cc
8cc
32cc
16.cc#
16ee-
16cc#
8b#
=95
32cc#
16.ee-
16ff
16ee-
8cc#
32b-
16.cc
16cc#
16cc
8b-
=96
32a
32b-
16cc
8a
8f
4.f
=97
16F
16B-
16c#
16B-
16c#
16B-
16F
16B-
16c#
16B-
16c#
16B-
=98
16F
16c
16f
16c
16e
16B-
16c
16f
16F
16f
16F
16f
=99
8r
16c
16f
16F
16c
4.r
=100
8r
16c
16f
8c
4r
8cc#
=101
32cc#
16.ee-
16ff
16ee-
8cc#
32cc#
16.ee-
16ff
16ee-
8cc#
=102
32b#
32cc#
16ee-
8cc
8a-
4a-
8ee-
=103
32ee-
16.ff
16ff#
16ff
8ee-
32ee-
16.ff
16ff#
16ff
8ee-
=104
32dd
32ee-
16ff
8dd
8b-
4b-
8b-
=105
32ee-
16.ff
16ff#
16ff
8ee-
32ee-
16.ff
16ff#
16ff
8ee-
=106
32aa
32bb-
32aa
32bb-
32aa
32bb-
32aa
32bb-
32aa
32bb-
32gg
32aa
4bb-
8ccc
=107
8ccc#
8eee-
8ccc#
32ccc#
16.ccc
8bb-
8ccc
=108
8bb-
8bb-
8bb-
4.bb-
=109
2.r
=110
4.r
4r
8d
=111
16F#
16B-
16e-
16B-
16F#
16B-
16F#
16B-
16e-
16B-
16F#
16B-
=112
16F
16B-
16d
16B-
16d
16f
16b-
16f
16b-
16dd
16ff
16aa-
=113
32ee-
16.ff
16ff#
16ff
8ee-
32ee-
16.ff
16ff#
16ff
8ee-
=114
32aa
32bb-
32aa
32bb-
32aa
32bb-
32aa
32bb-
32aa
32bb-
32gg
32aa
4bb-
8ccc
=115
8ccc#
8eee-
8ccc#
32ccc#
16.ccc
8bb-
8ccc
=116
8bb-
8bb-
8bb-
4.bb-
=117
4r
8c#
8f#
8b-
8cc#
=118
4ff#
8f#
8b-
8cc#
8ff#
=119
4bb-
8b-
8cc#
8ff#
8bb-
=120
8ccc#
8cc#
8ccc#
8cc#
8bb
8cc#
=121
8bb-
8cc#
8bb-
8b
8aa-
8b
=122
8ff#
8b-
8ff#
8cc
8ff#
8cc
=123
4ff
8c#
8f
8a-
8cc#
=124
4ff
8f
8a-
8cc#
8ff
=125
4aa-
8cc#
8ff
8aa-
8ccc#
=126
8fff
8aa-
8fff
8ff#
8eee-
8ff#
=127
8ccc#
8ff
8ccc#
8ff
8ccc
8ff
=128
8ccc
8ff
8ccc
8ff
8bb
8ff
=129
8ccc
8c
8cc
8e
8ee
8g
=130
8gg
8cc
8ccc
8bb
8fff
8bb
=131
8ccc
8cc
8ccc
8g
8gg
8e
=132
8ee
8c
8cc
8b
8ff
8b
=133
8cc
8c
8cc
8e
8ee
8g
=134
8gg
8cc
8ccc
8bb
8fff
8bb
=135
8ccc
8cc
8ccc
8bb
8fff
8bb
=136
8ccc
8cc
8ccc
8bb
8fff
8bb
=137
16bb
16ccc
16ddd
16ccc
16bb
16ccc
16bb
16ccc
16bb
16ccc
16bb
16ccc
=138
16bb
16ccc
16ddd
16ccc
16bb
16ccc
16bb
16ccc
16bb
16ccc
16bb
16ccc
=139
16aa
16bb-
16ccc
16bb-
16aa
16bb-
16aa
16bb-
16aa
16bb-
16aa
16bb-
=140
16aa
16bb-
16ccc
16bb-
16aa
16bb-
16aa
16bb-
16aa
16bb-
16aa
16bb-
=141
16aa
16gg#
16aa
16bb
16ccc
16bb-
16aa
16gg
16ff#
16ee
16ff#
16dd
=142
16gg
16ff#
16gg
16aa
16bb-
16aa
16gg
16ff
16ee
16dd
16ee
16cc
=143
16ff
16cc
16b
16cc
16ee
16cc
16ff
16cc
16b
16cc
16ee
16cc
=144
16ff
16cc
16b
16cc
16aa
16cc
16ccc
16cc
16ccc
16cc
16ccc
16cc
=145
8ccc
8ccc
8aa
4ddd
8ccc
=146
8bb-
8bb-
8gg
4ccc
8bb-
=147
16aa
16a
16cc
16a
16gg
16b-
16ff
16f
16cc
16f
16dd
16f
=148
16cc
16f
16a
16f
16b-
16e
16a
16f
16cc
16a
16ff
16cc
=149
16aa
16a
16cc
16a
16gg
16b-
16ff
16f
16cc
16f
16dd
16f
=150
16cc
16f
16a
16f
16g
16e
4.f
=151
8r
32ff
32ee
16dd
8ee
8gg
8ee
8cc
=152
4.ff
4.r
=153
8r
32ff
32ee
16dd
8ee
8gg
8cc
8ccc
=154
4.ccc
4.r
=155
16f
16a
16cc
16ee-
24ff
24aa
24ccc
16eee-
16ccc
16eee-
16ccc
16eee-
16ccc
=156
16ddd
16bb-
16fff
16ddd
16bb-
16ff
16dd
16ff
16bb-
16ff
16dd
16b-
=157
16a
16cc
16ee-
16ff
16aa
16ccc
16eee-
16ccc
16eee-
16ccc
16eee-
16ccc
=158
4ddd
8ff
8ff
8dd
8gg
=159
8gg
8ee-
8aa
8aa
8ff
8bb-
=160
8bb-
8ddd
8ff
8ff
8dd
8gg
=161
8gg
8ee-
8aa
8aa
8ff
8bb-
=162
4bb-
8aa
4gg
8ff
=163
4ee
8eee
4eee
8fff
=164
4fff
8fff
4fff
8eee
=165
4eee
8eee
4eee
8fff
=166
4fff
8fff
4fff
8eee
=167
4.eee
4.r
=168
2.r
=169
4r
8eee
8bb
8ccc
8eee
=170
8aa-
8aa
8ccc
8ee
8aa
8ff#
=171
4.gg
4.r
=172
4.r
4r
8bb-[
=173
8bb-]
8aa
8aa
8ee
8ff
8aa
=174
8cc#
8dd
8ff
8a
8dd
8b
=175
4.cc
4r
8aa[
=176
8aa]
8ff#
8gg
8a
8dd
8b
=177
4.cc
4r
8aa[
=178
8aa]
8ff#
8gg
8dd
8gg
8ee
=179
4.ff
4r
8ddd[
=180
8ddd]
8bb
8ccc
8dd
8gg
8ee
=181
8ff
8aa
8ff#
8gg
8bb-
8aa-
=182
8aa
8ccc
8aa
8bb-
8ddd
8bb
=183
8ccc
8aa
8ff
8bb-
8gg
8ee
=184
16ff
16fff
16ff
16fff
16ff
16fff
16ff
16fff
16ff
16fff
16ff
16fff
=185
16ff
16fff
16ff
16fff
16ff
16fff
16ff
16fff
16ff
16fff
16ff
16fff
=186
16a
16cc
16ff
16aa
8ccc
16e
16g
16b-
16ee
8gg
=187
16ff
16f
16e
16f
16g
16f
16a
16f
16e
16f
16b-
16f
=188
16cc
16f
16e
16f
16g
16f
16a
16f
16e
16f
16b-
16f
=189
4cc
16g
16gg
16a
16aa
16a
16aa
16b-
16bb-
=190
16cc
16ccc
16cc
16ccc
16gg
16fff
16aa
16fff
16aa
16fff
16bb-
16fff
=191
16ccc
16aa
16fff
16ccc
16aa
16ff
16aa
16ff
16ccc
16aa
16ff
16cc
=192
16ff
16cc
16aa
16ff
16cc
16a
16cc
16a
16ff
16cc
16a
16f
=193
16a
16f
16cc
16a
16f
16c
16b-
16g
16cc
16b-
16g
16e
=194
16ccc
16aa
16fff
16ccc
16aa
16ff
16aa
16ff
16ccc
16aa
16ff
16cc
=195
16ff
16cc
16aa
16ff
16cc
16a
16cc
16a
16ff
16cc
16a
16f
=196
16a
16f
16cc
16a
16f
16c
16b-
16g
16cc
16b-
16g
16e
=197
16ccc
16aa
16fff
16ccc
16aa
16ff
16aa
16ff
16ccc
16aa
16ff
16cc
=198
16ff
16cc
16aa
16ff
16cc
16a
16cc
16a
16ff
16cc
16a
16f
=199
16a
16f
16cc
16a
16f
16c
16f
16c
16a
16f
16c
16A
=200
16c
16A
16f
16c
16A
16F
4.r
=201
2.r
=202
2.r
=203
2.r
=204
2.r
=205
4r
8c#
8f
8a-
8cc#
=206
4ff
8f
8a-
8cc#
8ff
=207
4aa-
8cc#
8ff
8aa-
8ccc#
=208
8fff
8aa-
8fff
8ff#
8eee-
8ff#
=209
4ccc#
8c#
8f
8b-
8cc#
=210
4ff
8f
8b-
8cc#
8ff
=211
4bb-
8b-
8cc#
8ff
8bb-
=212
8ccc#
8ff
8ccc#
8ee-
8ccc
8ee-
=213
4bb-
8B-
8c#
8f
8b-
=214
4cc#
8c#
8f#
8b-
8cc#
=215
4ff#
8f#
8b-
8cc#
8ff#
=216
8bb-
8cc#
8bb-
8b
8aa-
8b
=217
8ff#
8b-
8ff#
8a
8ff
8a
=218
8ff#
8b-
8ff#
8b-
8ff
8b-
=219
4.ee
8ccc#
8ccc#
8ee
=220
4.r
8ccc#
8ccc#
8ee
=221
4.r
8ccc
8ccc
8ff
=222
4.r
8eee
8eee
8fff
=223
4.r
8eee
8eee
8fff
=224
4.r
8eee
8eee
8fff
=225
4.eee
4.r
=226
4.r
8gg
8gg
8ccc
=227
8ee
8ee
8gg
8cc
8cc
8ee
=228
8g
8g
8cc
8e
8e
8g
=229
4.c
4.r
=230
16c
16d
16c
16B
16c
16G
16e
16f
16e
16d#
16e
16c
=231
16g
16a
16g
16f#
16g
16e
16cc
16dd
16cc
16b
16cc
16g
=232
16ee
16ff
16ee
16dd#
16ee
16cc
16gg
16aa
16gg
16ff#
16gg
16ee
=233
32ccc
32ddd
32ccc
32ddd
32ccc
32ddd
32ccc
32ddd
32ccc
32ddd
32ccc
32ddd
32ccc
32ddd
32ccc
32ddd
32ccc
32ddd
32ccc
32ddd
32ccc
32ddd
32ccc
32ddd
=234
32ccc
32ddd
32ccc
32ddd
32ccc
32ddd
32ccc
32ddd
32ccc
32ddd
32ccc
32ddd
32ccc
32ddd
32ccc
32ddd
32ccc
32ddd
32ccc
32ddd
32ccc
32ddd
32ccc
32ddd
=235
32ccc
32ddd
32ccc
32ddd
32ccc
32ddd
32ccc
32ddd
32ccc
32ddd
32ccc
32ddd
32ccc
32ddd
32ccc
32ddd
32ccc
32ddd
32ccc
32ddd
32ccc
32ddd
32ccc
32ddd
=236
32ccc
32ddd
32ccc
32ddd
32ccc
32ddd
32ccc
32ddd
32ccc
32ddd
32ccc
32ddd
32ccc
32ddd
32ccc
32ddd
32ccc
32ddd
32ccc
32ddd
32ccc
32ddd
32ccc
32ddd
=237
32ccc
32ddd
32ccc
32ddd
32ccc
32ddd
32ccc
32ddd
32ccc
32ddd
32ccc
32ddd
32ccc
32ddd
32ccc
32ddd
32ccc
32ddd
32ccc
32ddd
32ccc
32ddd
32ccc
32ddd
=238
32ccc
32ddd
32ccc
32ddd
32ccc
32ddd
32ccc
32ddd
32ccc
32ddd
32ccc
32ddd
32ccc
32ddd
32ccc
32ddd
32ccc
32ddd
32ccc
32ddd
32ccc
32ddd
32ccc
32ddd
=239
32ccc
32ddd
32ccc
32ddd
32ccc
32ddd
32ccc
32ddd
32ccc
32ddd
32ccc
32ddd
32ccc
32ddd
32ccc
32ddd
32ccc
32ddd
32ccc
32ddd
32ccc
32ddd
32ccc
32ddd
=240
32ccc
32ddd
32ccc
32ddd
32ccc
32ddd
32ccc
32ddd
32ccc
32ddd
32ccc
32ddd
32ccc
32ddd
32ccc
32ddd
32ccc
32ddd
32ccc
32ddd
32ccc
32ddd
32bb
32ccc
=241
16fff
16ff
16ccc
16ff
16eee
16ff
16fff
16ff
16ccc
16ff
16ddd
16ff
=242
16ccc
16ff
16aa
16ff
16bb-
16ff
16aa
16a
16cc
16ff
16aa
16ccc
=243
16fff
16ff
16aa
16ff
16eee
16ee
16fff
16ff
16ccc
16ff
16ccc#
16cc#
=244
16ddd
16dd
16ff
16dd
16aa
16a
16bb-
16b-
16ff
16b-
16aa-
16a-
=245
16aa
16a
16aa
16a
16ff
16f
16gg
16g
16gg
16g
16ee
16e
=246
16a
16ff
16f
16ff
16f
16ff
16f
16ff
16f
16ff
16f
16ff
=247
16f
16ff
16f
16ff
16f
16ff
16f
16ff
16f
16ff
16f
16ff
=248
16f
16ff
16f
16ff
16f
16ff
16f
16ff
16f
16ff
16f
16ff
=249
16f
16ff
16f
16ff
16f
16ff
16bb-
16b-
16bb-
16b-
16ee
16b-
=250
4.ff
4.r
=251
8r
8aa
8ccc
8r
8aa
8ccc
=252
8r
8aa
8ccc
8r
8aa
8ccc
=253
8r
8bb-
8ddd
8aa
8aa
8ccc
=254
8bb-
8bb-
8ddd
8r
8ff#
8aa
=255
8r
8gg
8bb-
8ff#
8ff#
8aa
=256
8gg
8gg
8bb-
8ee
8ee
8gg
=257
8ff
8ff
8aa
8ccc
8ccc
8aa
=258
8bb-
8bb-
8gg
8bb-
8bb-
8gg
=259
8aa
8aa
8ff
8fff
8fff
8ddd
=260
8ccc
8ccc
8aa
8ccc
8ccc
8gg
=261
8ccc
8ccc
8aa
8fff
8fff
8ddd
=262
8ccc
8ccc
8aa
8bb-
8bb-
8gg
=263
4ff
16ee
16ff
16ee
16ff
16aa
16ff
16cc#
16dd
=264
16cc#
16dd
16ff
16dd
16b-
16b
16a#
16b
16dd
16b
16g
16f
=265
4e
16aa
16bb-
16aa
16bb-
16ddd
16ff#
16gg
16bb-
=266
16ee-
16ee
16gg
16a
16b-
16ee
16f#
16g
16b-
16g
16e
16g
=267
4.B-[
4B-]
8cc
=268
4aa
8gg
4ff
8dd
=269
4cc
8b-
4.a
=270
4a
8cc#
4dd
8ee
=271
4ff
8aa-
4aa
8a
=272
4aa
8gg
4ff
8ee
=273
4dd
8cc
4.b
=274
4cc
8b-
4.a
=275
4dd
8cc
4b-
8a
=276
4.g
4.e
=277
8r
32r
32f
16a[
8a]
4.r
=278
8r
8ee
8ff
8r
8ee
8ff
=279
8gg
8aa
8bb-
8ccc
8ddd
8eee
=280
16r
16ccc
8fff
16eee
16ddd
4.ccc
=281
8r
8eee
8fff
8r
8eee
8fff
=282
8r
16fff
16eee
16ddd
16ccc
16bb
16ccc
16ddd
16ccc
16bb-
16gg
=283
8ff
16ccc
16aa
16ff
16cc
16ff
16cc
16aa
16ff
16cc
16a
=284
16cc
16a
16ff
16cc
16a
16f
16a
16f
16cc
16a
16f
16c
=285
16f
16c
16a
16f
16c
16A
16c
16A
16f
16c
16A
16F
=286
2.r
=287
2.r
=288
2.r
=289
4r
8fff
4fff
8fff
=290
4.fff
4.r
==
*-
